press_kit/Bazzite_BW.svg

<?xml version="1.0" encoding="UTF-8" standalone="no"?>
<svg
   width="600"
   height="600"
   viewBox="0 0 600 600"
   fill="none"
   version="1.1"
   id="svg6"
   xmlns="http://www.w3.org/2000/svg"
   xmlns:svg="http://www.w3.org/2000/svg">
  <defs
     id="defs6" />
  <path
     fill-rule="evenodd"
     clip-rule="evenodd"
     d="M 150,50 C 94.7715,50 50,94.7715 50,150 v 92 58 C 50,438.071 161.929,550 300,550 438.071,550 550,438.071 550,300 550,161.929 438.071,50 300,50 H 242 V 178 H 376.185 C 432.416,178 478,223.584 478,279.815 478,389.269 389.27,478 279.815,478 223.584,478 178,432.416 178,376.185 V 242 H 50 V 178 H 178 V 50 Z m 92,326.185 V 242 H 376.185 C 397.07,242 414,258.93 414,279.815 414,353.923 353.923,414 279.815,414 258.93,414 242,397.07 242,376.185 Z"
     fill="#ffffff"
     id="path1" />
  <path
     d="m 178,65 h -15 v 15 83 H 80 65 v 15 64 15 h 15 83 v 83 15 h 15 64 15 v -15 -83 h 83 15 V 242 178 163 H 340 257 V 80 65 h -15 z"
     stroke="#ffffff"
     stroke-width="30"
     id="path2" />
  <path
     d="m 312.5,205.67 c 3.333,1.924 3.333,6.736 0,8.66 l -21,12.124 c -3.333,1.925 -7.5,-0.481 -7.5,-4.33 v -24.248 c 0,-3.849 4.167,-6.255 7.5,-4.33 z"
     fill="#ffffff"
     id="path3" />
  <path
     d="m 214.33,312.5 c -1.924,3.333 -6.736,3.333 -8.66,0 l -12.124,-21 c -1.925,-3.333 0.481,-7.5 4.33,-7.5 h 24.248 c 3.849,0 6.255,4.167 4.33,7.5 z"
     fill="#ffffff"
     id="path4" />
  <path
     d="m 205.67,107.5 c 1.924,-3.333 6.736,-3.333 8.66,0 l 12.124,21 c 1.925,3.333 -0.481,7.5 -4.33,7.5 h -24.248 c -3.849,0 -6.255,-4.167 -4.33,-7.5 z"
     fill="#ffffff"
     id="path5" />
  <path
     d="m 107.5,214.33 c -3.333,-1.924 -3.333,-6.736 0,-8.66 l 21,-12.124 c 3.333,-1.925 7.5,0.481 7.5,4.33 v 24.248 c 0,3.849 -4.167,6.255 -7.5,4.33 z"
     fill="#ffffff"
     id="path6" />
</svg>

<svg width="600" height="600" viewBox="0 0 600 600" fill="none" xmlns="http://www.w3.org/2000/svg">
<path fill-rule="evenodd" clip-rule="evenodd" d="M150 50C94.7715 50 50 94.7715 50 150V242V300C50 438.071 161.929 550 300 550C438.071 550 550 438.071 550 300C550 161.929 438.071 50 300 50H242V178H376.185C432.416 178 478 223.584 478 279.815C478 389.269 389.27 478 279.815 478C223.584 478 178 432.416 178 376.185V242H50L50 178L178 178V50H150ZM242 376.185V242H376.185C397.07 242 414 258.93 414 279.815C414 353.923 353.923 414 279.815 414C258.93 414 242 397.07 242 376.185Z" fill="white"/>
<path d="M178 65H163V80L163 163H80H65L65 178L65 242L65 257H80H163V340V355H178H242H257V340V257L340 257H355V242V178V163H340H257L257 80V65H242H178Z" stroke="white" stroke-width="30"/>
<path d="M312.5 205.67C315.833 207.594 315.833 212.406 312.5 214.33L291.5 226.454C288.167 228.379 284 225.973 284 222.124L284 197.876C284 194.027 288.167 191.621 291.5 193.546L312.5 205.67Z" fill="white"/>
<path d="M214.33 312.5C212.406 315.833 207.594 315.833 205.67 312.5L193.546 291.5C191.621 288.167 194.027 284 197.876 284L222.124 284C225.973 284 228.379 288.167 226.454 291.5L214.33 312.5Z" fill="white"/>
<path d="M205.67 107.5C207.594 104.167 212.406 104.167 214.33 107.5L226.454 128.5C228.379 131.833 225.973 136 222.124 136H197.876C194.027 136 191.621 131.833 193.546 128.5L205.67 107.5Z" fill="white"/>
<path d="M107.5 214.33C104.167 212.406 104.167 207.594 107.5 205.67L128.5 193.546C131.833 191.621 136 194.027 136 197.876L136 222.124C136 225.973 131.833 228.379 128.5 226.454L107.5 214.33Z" fill="white"/>
</svg>
